assets/Chess pawn/Flat/chess_pawn_flat.svg

<svg width="32" height="32" viewBox="0 0 32 32" fill="none" xmlns="http://www.w3.org/2000/svg">
<path d="M18.6458 9C19.4762 8.26706 20 7.19469 20 6C20 3.79086 18.2091 2 16 2C13.7909 2 12 3.79086 12 6C12 7.19469 12.5238 8.26706 13.3542 9H13C11.8954 9 11 9.89543 11 11C11 12.1046 11.8954 13 13 13H13.5V17C13.5 17 13.5 17.5 13 18L10.9749 20.0251C9.48209 21.5179 9.71577 23.7281 10.9901 25C9.33779 25.0054 8 26.3464 8 28V30H24V28C24 26.3464 22.6622 25.0054 21.0099 25C22.2842 23.7281 22.5179 21.5179 21.0251 20.0251L19 18C18.5 17.5 18.5 17 18.5 17V13H19C20.1046 13 21 12.1046 21 11C21 9.89543 20.1046 9 19 9H18.6458Z" fill="#212121"/>
</svg>

<svg xmlns="http://www.w3.org/2000/svg" width="32" height="32" fill="none"><path fill="#212121" d="M18.646 9a4 4 0 1 0-5.292 0H13a2 2 0 1 0 0 4h.5v4s0 .5-.5 1l-2.025 2.025c-1.493 1.493-1.26 3.703.015 4.975A3 3 0 0 0 8 28v2h16v-2a3 3 0 0 0-2.99-3c1.274-1.272 1.508-3.482.015-4.975L19 18c-.5-.5-.5-1-.5-1v-4h.5a2 2 0 1 0 0-4h-.354Z"/></svg>
